X: 152
T:Dunatuli Ugros
O:Hungary
W:derived from the transcription on
W:http://www.folkloretanznoten.de/
M:2/4
L:1/8
%P:A3BC3D4E2F3GH
K:Gdor
"C"cc dc|"Gm"B2 G2|"Am"F/2E/2F GA|"Bb"B2-B/2G/2A/2B/2|\
"C"cc dc|"Gm"B3/2A/2 G2|"Am"F/2E/2F EF|"Gm"G2-G/2G/2A/2=B/2|
cG FG|"C"_E/2F/2E/2D/2 CC|"F"FF CC/2D/2|"C"_EC/2D/2 EE|\
"Gm"cG FG|"C"_E/2D/2E CC|"Bb"B,/2A,/2B, A,B,|"C"C2 C2|
"Gm"DD GF|"Am"_E/2F/2E/2D/2 CC|"Gm"B,B, CD|"C"_E2 F/2E/2D/2E/2|\
"F"FF GF|"C" _E3/2E/4D/4 C2|"Bb"B,B, CB,|"C" C2 z/2G/4A/4=B|
P:B
"C"cc GA |"Gm"BA GA|BA G A/2B/2|"C"cc G-G/4F/4G/4A/4|"Gm"BA G2|:\ 
"F"FF GG/2F/2| EE F2|"C" E/2D/2C CB,|"C"CC C2:|
P:C
"Gm"GG F2|G2 GF|Gc B2|G3/2F/4E/4 GF|\
Bc G2|"F"F2 EF|"C"E/4D/4C3/2 B,2|C3-(C/4D/4E/4F/4)|
P:D
"C"cc c2|"Gm"B2 (B/4A/4G3/2)|"Dm"FG _A2|"Gm"G3/2F/2 GG|\
"C"GF _ED|C2-C/2D/2_E/2F/2|GF _ED|C2- C/2G/2A/2=B/2|
P:E
"C"cc G2|c2 cG|cB =A2|"F"F2 FC|\
FG AF|"C"G2 _Ez|"Dm"F_E D2|"C"C2 CC|
P:F
"C"cc GA |"Gm"BG F2|"Bb"B2-B/2G/2A/2B/2|"C"c2 GA|\
"Gm"BG F2|"C"_E2 F/2E/2D/2E/2|:"Dm" F2 G3/2F/2|"C"_EC CD|
_E/2D/2C C3/2D/4E/4|"Dm"F2 G3/2F/2|"C"_E/2D/2C CB,|C2 C2:|
P:G
"C"cccc|c2B2|A2G2|"F"cFFF|F2_E2|D2 C2|:\
FF FC| F2 G3/2F/4G/4|"C"cc B2|"Gm"cG GF|_E2 F2|"C"C2 C2:|
P:H
"C"HC2- C/2D/2=E/2F/2|HG2-G/2F/2E/2D/2|HC4|



